material/.icons/material/access-point-network-off.svg

<svg xmlns="http://www.w3.org/2000/svg" viewBox="0 0 24 24"><path d="M14.83 13.83A3.99 3.99 0 0016 11c0-1.11-.45-2.11-1.17-2.83l1.41-1.41A5.98 5.98 0 0118 11c0 1.65-.67 3.15-1.76 4.24l-1.41-1.41M14 11a2 2 0 00-2-2c-.6 0-1.13.27-1.5.68l2.82 2.82c.41-.37.68-.9.68-1.5m3.66 5.66l1.41 1.41A9.969 9.969 0 0022 11c0-2.76-1.12-5.26-2.93-7.07l-1.41 1.41A7.955 7.955 0 0120 11c0 2.22-.89 4.22-2.34 5.66M22 21.18V20h-1.18L22 21.18m-1.73.82l.73.73L19.73 24l-2-2H15a1 1 0 01-1 1h-4a1 1 0 01-1-1H2v-2h7a1 1 0 011-1h1v-3.73l-2.66-2.66c.2.46.48.89.83 1.22l-1.41 1.41A5.98 5.98 0 016 11c0-.23 0-.46.04-.69L4.37 8.64C4.14 9.39 4 10.18 4 11c0 2.22.89 4.22 2.34 5.66l-1.41 1.41A9.969 9.969 0 012.81 7.08L1 5.27 2.28 4 3.7 5.42l1.45 1.45 1.48 1.48L8.17 9.9l2.11 2.1.72.71L18.27 20h.01l2 2h-.01m-4.54-2L13 17.27V19h1a1 1 0 011 1h.73z"/></svg>

<?xml version="1.0" encoding="UTF-8"?><!DOCTYPE svg PUBLIC "-//W3C//DTD SVG 1.1//EN" "http://www.w3.org/Graphics/SVG/1.1/DTD/svg11.dtd"><svg xmlns="http://www.w3.org/2000/svg" xmlns:xlink="http://www.w3.org/1999/xlink" version="1.1" id="mdi-access-point-network-off" width="24" height="24" viewBox="0 0 24 24"><path d="M14.83,13.83C15.55,13.11 16,12.11 16,11C16,9.89 15.55,8.89 14.83,8.17L16.24,6.76C17.33,7.85 18,9.35 18,11C18,12.65 17.33,14.15 16.24,15.24L14.83,13.83M14,11A2,2 0 0,0 12,9C11.4,9 10.87,9.27 10.5,9.68L13.32,12.5C13.73,12.13 14,11.6 14,11M17.66,16.66L19.07,18.07C20.88,16.26 22,13.76 22,11C22,8.24 20.88,5.74 19.07,3.93L17.66,5.34C19.11,6.78 20,8.79 20,11C20,13.22 19.11,15.22 17.66,16.66M22,21.18V20H20.82L22,21.18M20.27,22L21,22.73L19.73,24L17.73,22H15A1,1 0 0,1 14,23H10A1,1 0 0,1 9,22H2V20H9A1,1 0 0,1 10,19H11V15.27L8.34,12.61C8.54,13.07 8.82,13.5 9.17,13.83L7.76,15.24C6.67,14.15 6,12.65 6,11C6,10.77 6,10.54 6.04,10.31L4.37,8.64C4.14,9.39 4,10.18 4,11C4,13.22 4.89,15.22 6.34,16.66L4.93,18.07C3.12,16.26 2,13.76 2,11C2,9.61 2.29,8.28 2.81,7.08L1,5.27L2.28,4L3.7,5.42L5.15,6.87L6.63,8.35V8.35L8.17,9.9L10.28,12L11,12.71L18.27,20H18.28L20.28,22H20.27M15.73,20L13,17.27V19H14A1,1 0 0,1 15,20H15.73Z" /></svg>
